symbols/be/PVR-{90}.svg

<?xml version="1.0" encoding="UTF-8" standalone="no"?>
<!-- Initially created with Inkscape, optimized by hand -->

<svg
   version="1.1"
   width="20"
   height="17.320999"
   id="svg1"
   xmlns="http://www.w3.org/2000/svg"
   xmlns:svg="http://www.w3.org/2000/svg">
  <defs
     id="defs1" />
  <path
     id="Fond"
     d="M 20,17.320999 H 0 L 10,-1.2114258e-6 Z"
     fill="#0b9b7b"
     style="stroke-width:0.1" />
  <path
     style="font-size:10.6667px;font-family:Isonorm;-inkscape-font-specification:'Isonorm, Normal';fill:#ffffff;fill-rule:evenodd;stroke-width:0.377953;stroke-linejoin:bevel"
     d="M 11.78134,11.226476 V 9.8078048 c 0,-0.896002 -0.89601,-1.429337 -1.781343,-1.429337 -0.885337,0 -1.781339,0.533335 -1.781339,1.429337 v 1.4186712 c 0,0.426669 0.096,0.714669 0.405334,1.024004 0.298668,0.309334 0.597335,0.394668 1.024003,0.394668 h 1.173335 c -0.128,0.426668 -0.24533,0.640002 -0.49067,1.013336 -0.490664,0.736003 -0.959999,0.949337 -1.269333,1.184004 -0.160001,0.117334 -0.181334,0.362668 -0.07467,0.522668 0.149334,0.192001 0.362668,0.181334 0.512002,0.05333 0.362667,-0.277334 1.024001,-0.757336 1.450671,-1.418671 0.544,-0.832003 0.83201,-1.685339 0.83201,-2.773343 z m -0.71467,0 c 0,0.138668 0,0.202668 -0.0107,0.341335 -0.0213,0.138667 -0.032,0.234667 -0.064,0.373334 H 9.658632 c -0.213334,0 -0.352001,-0.04267 -0.512001,-0.192 C 8.98663,11.599811 8.933297,11.450477 8.933297,11.237143 V 9.8184718 c 0,-0.501335 0.565335,-0.714669 1.06667,-0.714669 0.501333,0 1.066673,0.213334 1.066673,0.714669 z"
     id="text1"
     aria-label="9" />
</svg>

<?xml version="1.0" encoding="UTF-8"?>
<svg xmlns="http://www.w3.org/2000/svg" xmlns:xlink="http://www.w3.org/1999/xlink" width="20" height="17.320999" viewBox="0 0 20 17.320999">
<path fill-rule="nonzero" fill="rgb(4.313725%, 60.784314%, 48.235294%)" fill-opacity="1" d="M 20 17.320312 L 0 17.320312 L 10 0 Z M 20 17.320312 "/>
<path fill-rule="evenodd" fill="rgb(100%, 100%, 100%)" fill-opacity="1" d="M 11.78125 11.226562 L 11.78125 9.808594 C 11.78125 8.910156 10.886719 8.378906 10 8.378906 C 9.113281 8.378906 8.21875 8.910156 8.21875 9.808594 L 8.21875 11.226562 C 8.21875 11.652344 8.316406 11.941406 8.625 12.25 C 8.921875 12.558594 9.222656 12.644531 9.648438 12.644531 L 10.820312 12.644531 C 10.691406 13.070312 10.574219 13.285156 10.332031 13.660156 C 9.839844 14.394531 9.371094 14.609375 9.0625 14.84375 C 8.902344 14.960938 8.878906 15.207031 8.988281 15.363281 C 9.136719 15.558594 9.347656 15.546875 9.5 15.417969 C 9.859375 15.140625 10.523438 14.660156 10.949219 14 C 11.492188 13.167969 11.78125 12.316406 11.78125 11.226562 Z M 11.066406 11.226562 C 11.066406 11.363281 11.066406 11.429688 11.054688 11.566406 C 11.035156 11.707031 11.023438 11.800781 10.992188 11.941406 L 9.660156 11.941406 C 9.445312 11.941406 9.304688 11.898438 9.148438 11.75 C 8.988281 11.601562 8.933594 11.449219 8.933594 11.238281 L 8.933594 9.820312 C 8.933594 9.316406 9.5 9.105469 10 9.105469 C 10.5 9.105469 11.066406 9.316406 11.066406 9.820312 Z M 11.066406 11.226562 "/>
</svg>
